Numix-GalliumOS/64/actions/image-gallery.svg

<?xml version="1.0" encoding="UTF-8" standalone="no"?>
<svg
   xmlns:dc="http://purl.org/dc/elements/1.1/"
   xmlns:cc="http://creativecommons.org/ns#"
   xmlns:rdf="http://www.w3.org/1999/02/22-rdf-syntax-ns#"
   xmlns:svg="http://www.w3.org/2000/svg"
   xmlns="http://www.w3.org/2000/svg"
   xmlns:xlink="http://www.w3.org/1999/xlink"
   xmlns:sodipodi="http://sodipodi.sourceforge.net/DTD/sodipodi-0.dtd"
   xmlns:inkscape="http://www.inkscape.org/namespaces/inkscape"
   width="64"
   height="64"
   viewBox="0 0 64 64"
   id="svg2"
   version="1.1"
   inkscape:version="0.91 r13725"
   sodipodi:docname="eog-image-gallery1.svg">
  <metadata
     id="metadata12">
    <rdf:RDF>
      <cc:Work
         rdf:about="">
        <dc:format>image/svg+xml</dc:format>
        <dc:type
           rdf:resource="http://purl.org/dc/dcmitype/StillImage" />
        <dc:title></dc:title>
      </cc:Work>
    </rdf:RDF>
  </metadata>
  <defs
     id="defs10">
    <linearGradient
       inkscape:collect="always"
       xlink:href="#linearGradient4220"
       id="linearGradient4226"
       x1="2.250833"
       y1="4.75"
       x2="4.7508335"
       y2="4.75"
       gradientUnits="userSpaceOnUse" />
    <linearGradient
       inkscape:collect="always"
       id="linearGradient4220">
      <stop
         style="stop-color:#e2d290;stop-opacity:0.70588237"
         offset="0"
         id="stop4222" />
      <stop
         id="stop4228"
         offset="0.50504142"
         style="stop-color:#e2d290;stop-opacity:1" />
      <stop
         style="stop-color:#e2d290;stop-opacity:0.70588237"
         offset="1"
         id="stop4224" />
    </linearGradient>
  </defs>
  <sodipodi:namedview
     pagecolor="#ffffff"
     bordercolor="#666666"
     borderopacity="1"
     objecttolerance="10"
     gridtolerance="10"
     guidetolerance="10"
     inkscape:pageopacity="0"
     inkscape:pageshadow="2"
     inkscape:window-width="1366"
     inkscape:window-height="704"
     id="namedview8"
     showgrid="false"
     inkscape:zoom="1"
     inkscape:cx="-21.152542"
     inkscape:cy="32"
     inkscape:window-x="0"
     inkscape:window-y="27"
     inkscape:window-maximized="1"
     inkscape:current-layer="svg2" />
  <g
     id="g4193"
     transform="matrix(4,0,0,4,-2,-2)">
    <rect
       y="9"
       x="9"
       height="7"
       width="7"
       id="rect4152"
       style="opacity:1;fill:#b8ccd3;fill-opacity:1;stroke:none;stroke-width:0.2;stroke-linecap:butt;stroke-linejoin:round;stroke-miterlimit:4;stroke-dasharray:none;stroke-opacity:0.61660061" />
    <path
       sodipodi:nodetypes="sccccccs"
       inkscape:connector-curvature="0"
       id="path47"
       d="m 12.5,10.758559 c -1.333334,0 -1.877719,1.586714 -1.136719,2.498047 0.159,0.195333 0.327219,0.437266 0.199219,0.697265 -0.06464,0.131242 -0.152777,0.225729 -0.25,0.308594 0.33573,0.897327 1.930206,1.06583 2.375,0 -0.09722,-0.08286 -0.185358,-0.177352 -0.25,-0.308594 -0.128,-0.259999 0.07355,-0.478932 0.199219,-0.697265 0.764,-1.325667 0.196614,-2.498047 -1.136719,-2.498047 z"
       style="fill:#e5b58b;fill-opacity:1" />
    <path
       sodipodi:nodetypes="ccccsc"
       inkscape:connector-curvature="0"
       id="path4183"
       d="M 11.3125,14.264 C 10.813633,14.757376 10,14.705201 10,16 l 5,0 c 0,-1.294799 -0.813633,-1.242624 -1.3125,-1.736 -0.359087,0.291488 -0.758149,0.476 -1.1875,0.476 -0.429351,0 -0.828413,-0.184512 -1.1875,-0.476 z"
       style="opacity:1;fill:#cf362d;fill-opacity:1;stroke:none;stroke-width:0.2;stroke-linecap:butt;stroke-linejoin:round;stroke-miterlimit:4;stroke-dasharray:none;stroke-opacity:0.61660061" />
    <path
       sodipodi:nodetypes="czcc"
       inkscape:connector-curvature="0"
       id="path75"
       d="m 11,12.225356 c 0.465721,-0.324686 0.750318,-0.762784 1.5,-0.766797 0.749682,-0.004 1.066025,0.398033 1.5,0.655469 0.0332,-2.041425 -3.042969,-1.941397 -3,0.111328 z"
       style="fill:#96413c;fill-opacity:1;fill-rule:nonzero;stroke:none" />
  </g>
  <g
     id="g4187"
     transform="matrix(4,0,0,4,-2,2)">
    <rect
       style="opacity:1;fill:#3db2e1;fill-opacity:1;stroke:none;stroke-width:0.2;stroke-linecap:butt;stroke-linejoin:round;stroke-miterlimit:4;stroke-dasharray:none;stroke-opacity:0.61660061"
       id="rect4150"
       width="7"
       height="7"
       x="9"
       y="0" />
    <path
       sodipodi:nodetypes="ccccc"
       inkscape:connector-curvature="0"
       id="path85"
       style="fill:#a2866a;fill-opacity:1"
       d="M 13.943376,3.45 10,7 16,7 16,6 Z" />
    <path
       id="path87"
       style="fill:#e5d740;fill-opacity:1"
       d="m 13,2 c 0,0.5234285 -0.476572,1 -1,1 -0.523429,0 -1,-0.4765715 -1,-1 0,-0.5234286 0.476571,-1.00000011 1,-1.00000011 0.523428,0 1,0.47657151 1,1.00000011 z"
       inkscape:connector-curvature="0" />
    <path
       sodipodi:nodetypes="ccccc"
       inkscape:connector-curvature="0"
       id="path91"
       style="fill:#94785c;fill-opacity:1"
       d="M 11.352941,2.5 9,5.4 9,7 14,7 Z" />
  </g>
  <g
     id="g4199"
     transform="matrix(4,0,0,4,2,-2)">
    <rect
       style="opacity:1;fill:#4fb45e;fill-opacity:1;stroke:none;stroke-width:0.2;stroke-linecap:butt;stroke-linejoin:round;stroke-miterlimit:4;stroke-dasharray:none;stroke-opacity:0.61660061"
       id="rect4154"
       width="7"
       height="7"
       x="0"
       y="9" />
    <path
       inkscape:connector-curvature="0"
       id="path35"
       d="m 3.4667969,9.901 c -0.6381705,0 -1.15625,0.487821 -1.15625,1.089844 0,0.02961 0.00121,0.06023 0.00391,0.08984 -0.089792,-0.02095 -0.1807596,-0.03301 -0.2734375,-0.0332 C 1.4791788,11.05383 1,11.537258 1,12.139281 c 0,0.450317 0.2931574,0.852956 0.7382812,1.015626 -0.133441,0.181893 -0.2046935,0.397828 -0.2050781,0.61914 0,0.602024 0.5178867,1.089652 1.15625,1.089844 0.2657283,-3.59e-4 0.5225854,-0.0859 0.7285157,-0.244141 0.211891,0.180357 0.4871354,0.280673 0.7734374,0.28125 0.6385554,0 1.1542969,-0.48939 1.1542969,-1.091797 C 5.3453435,13.605581 5.2843266,13.405697 5.1699219,13.233031 5.6615767,13.096514 5.9998072,12.671496 6,12.18811 6,11.585895 5.615495,11.106534 4.7285156,11.098266 c -0.037686,0 -0.075786,4.06e-4 -0.1132812,0.0039 0.00461,-0.03711 0.00723,-0.07383 0.00781,-0.111328 0,-0.602407 -0.5169246,-1.090036 -1.15625,-1.089844 z M 3.5,11.600219 A 0.89999998,0.89999998 0 0 1 4.4003906,12.50061 0.89999998,0.89999998 0 0 1 3.5,13.401 0.89999998,0.89999998 0 0 1 2.5996094,12.50061 0.89999998,0.89999998 0 0 1 3.5,11.600219 Z"
       style="opacity:1;fill:#f1ef5d;fill-opacity:1;fill-rule:nonzero;stroke:none" />
    <circle
       id="circle47"
       style="fill:#9d8d6d;fill-opacity:1;stroke:none"
       r="0.60000002"
       cy="12.500218"
       cx="3.5" />
  </g>
  <g
     id="g4181"
     transform="matrix(4,0,0,4,2,2)">
    <rect
       y="0"
       x="0"
       height="7"
       width="7"
       id="rect4148"
       style="opacity:1;fill:#3c345d;fill-opacity:1;stroke:none;stroke-width:0.2;stroke-linecap:butt;stroke-linejoin:round;stroke-miterlimit:4;stroke-dasharray:none;stroke-opacity:0.61660061" />
    <path
       id="path46"
       style="opacity:1;fill:url(#linearGradient4226);fill-opacity:1;fill-rule:nonzero;stroke:none"
       d="m 4.3645834,3.5 c -0.2702083,0.026873 -0.5589583,0.043674 -0.86375,0.043674 -0.305,0 -0.59375,-0.016801 -0.86375,-0.043674 L 2.250833,5.7830955 c 0.8416671,0.2996354 1.6770837,0.2785851 2.5000004,0 z"
       inkscape:connector-curvature="0" />
    <path
       id="path52"
       style="opacity:1;fill:#787878;fill-opacity:1;fill-rule:nonzero;stroke:none"
       d="M 6,2.4454545 C 6,2.8220454 4.8806251,3.15 3.5000001,3.15 2.119375,3.15 1,2.8220454 1,2.4454545 1,2.0688637 2.119375,1.65 3.5000001,1.65 4.8806251,1.65 6,2.0688637 6,2.4454545 Z"
       inkscape:connector-curvature="0" />
    <path
       id="path54"
       style="opacity:1;fill:#cccccc;fill-opacity:1;fill-rule:nonzero;stroke:none"
       d="m 4.5416667,2.0499999 c 0,0.21 -0.4664583,0.399 -1.0416666,0.399 -0.5752084,0 -1.0416667,-0.189 -1.0416667,-0.399 C 2.4583334,1.4199999 2.8750001,1 3.5000001,1 c 0.625,0 1.0416666,0.4199999 1.0416666,1.0499999 z"
       inkscape:connector-curvature="0" />
  </g>
</svg>

<svg xmlns="http://www.w3.org/2000/svg" viewBox="0 0 64 64">
 <defs>
  <linearGradient id="linearGradient4226" x1="2.251" x2="4.751" gradientUnits="userSpaceOnUse">
   <stop style="stop-color:#e2d290;stop-opacity:0.706"/>
   <stop offset="0.505" style="stop-color:#e2d290;stop-opacity:1"/>
   <stop offset="1" style="stop-color:#e2d290;stop-opacity:0.706"/>
  </linearGradient>
 </defs>
 <g transform="matrix(4,0,0,4,-2,-2)">
  <rect y="9" x="9" height="7" width="7" style="fill:#b8ccd3;opacity:1;fill-opacity:1;stroke:none"/>
  <path d="m 12.5 10.759 c -1.333 0 -1.878 1.587 -1.137 2.498 0.159 0.195 0.327 0.437 0.199 0.697 -0.065 0.131 -0.153 0.226 -0.25 0.309 0.336 0.897 1.93 1.066 2.375 0 -0.097 -0.083 -0.185 -0.177 -0.25 -0.309 -0.128 -0.26 0.074 -0.479 0.199 -0.697 0.764 -1.326 0.197 -2.498 -1.137 -2.498 z" style="fill:#e5b58b;fill-opacity:1"/>
  <path d="m 11.313 14.264 c -0.499 0.493 -1.313 0.441 -1.313 1.736 l 5 0 c 0 -1.295 -0.814 -1.243 -1.313 -1.736 -0.359 0.291 -0.758 0.476 -1.188 0.476 -0.429 0 -0.828 -0.185 -1.188 -0.476 z" style="fill:#cf362d;opacity:1;fill-opacity:1;stroke:none"/>
  <path d="m 11 12.225 c 0.466 -0.325 0.75 -0.763 1.5 -0.767 0.75 -0.004 1.066 0.398 1.5 0.655 0.033 -2.041 -3.043 -1.941 -3 0.111 z" style="fill:#96413c;fill-opacity:1;stroke:none;fill-rule:nonzero"/>
 </g>
 <g transform="matrix(4,0,0,4,-2,2)">
  <rect width="7" height="7" x="9" style="fill:#3db2e1;opacity:1;fill-opacity:1;stroke:none"/>
  <path d="M 13.943376,3.45 10,7 16,7 16,6 Z" style="fill:#a2866a;fill-opacity:1"/>
  <path d="m 13 2 c 0 0.523 -0.477 1 -1 1 -0.523 0 -1 -0.477 -1 -1 0 -0.523 0.477 -1 1 -1 0.523 0 1 0.477 1 1 z" style="fill:#e5d740;fill-opacity:1"/>
  <path d="M 11.352941,2.5 9,5.4 9,7 14,7 Z" style="fill:#94785c;fill-opacity:1"/>
 </g>
 <g transform="matrix(4,0,0,4,2,-2)">
  <rect width="7" height="7" y="9" style="fill:#4fb45e;opacity:1;fill-opacity:1;stroke:none"/>
  <path d="m 3.467 9.901 c -0.638 0 -1.156 0.488 -1.156 1.09 0 0.03 0.001 0.06 0.004 0.09 -0.09 -0.021 -0.181 -0.033 -0.273 -0.033 c -0.562 0.006 -1.041 0.49 -1.041 1.092 c 0 0.45 0.293 0.853 0.738 1.016 -0.133 0.182 -0.205 0.398 -0.205 0.619 0 0.602 0.518 1.09 1.156 1.09 0.266 0 0.523 -0.086 0.729 -0.244 0.212 0.18 0.487 0.281 0.773 0.281 0.639 0 1.154 -0.489 1.154 -1.092 c 0 -0.204 -0.061 -0.404 -0.176 -0.576 0.492 -0.137 0.83 -0.562 0.83 -1.045 0 -0.602 -0.385 -1.082 -1.271 -1.09 c -0.038 0 -0.076 0 -0.113 0.004 0.005 -0.037 0.007 -0.074 0.008 -0.111 0 -0.602 -0.517 -1.09 -1.156 -1.09 z m 0.033 1.699 a 0.9 0.9 0 0 1 0.9 0.9 0.9 0.9 0 0 1 -0.9 0.9 0.9 0.9 0 0 1 -0.9 -0.9 0.9 0.9 0 0 1 0.9 -0.9" style="fill:#f1ef5d;opacity:1;fill-opacity:1;stroke:none;fill-rule:nonzero"/>
  <circle r="0.6" cy="12.5" cx="3.5" style="fill:#9d8d6d;fill-opacity:1;stroke:none"/>
 </g>
 <g transform="matrix(4,0,0,4,2,2)">
  <rect height="7" width="7" style="fill:#3c345d;opacity:1;fill-opacity:1;stroke:none"/>
  <path d="m 4.365 3.5 c -0.27 0.027 -0.559 0.044 -0.864 0.044 -0.305 0 -0.594 -0.017 -0.864 -0.044 l -0.386 2.283 c 0.842 0.3 1.677 0.279 2.5 0 z" style="fill:url(#linearGradient4226);opacity:1;fill-opacity:1;stroke:none;fill-rule:nonzero"/>
  <path d="m 6 2.445 c 0 0.377 -1.119 0.705 -2.5 0.705 -1.381 0 -2.5 -0.328 -2.5 -0.705 0 -0.377 1.119 -0.795 2.5 -0.795 1.381 0 2.5 0.419 2.5 0.795" style="fill:#787878;opacity:1;fill-opacity:1;stroke:none;fill-rule:nonzero"/>
  <path d="m 4.542 2.05 c 0 0.21 -0.466 0.399 -1.042 0.399 -0.575 0 -1.042 -0.189 -1.042 -0.399 c 0 -0.63 0.417 -1.05 1.042 -1.05 c 0.625 0 1.042 0.42 1.042 1.05 z" style="fill:#ccc;opacity:1;fill-opacity:1;stroke:none;fill-rule:nonzero"/>
 </g>
</svg>
